X:44
M:6/8
L:1/8
K:D
|: a | aff gee | fdd eAA | aff fed | eee e2A | AFd dAf | fdb a2g | fed Adc | ddd d2 :|

